X:45
T:Olive Branch *NEW!* Requested by Colin Abbott
R:Hornpipe
O:Cape Breton
M:2/2
C:Traditional-Natalie MacMaster
K:A maj.
A2 cA eAfA|eAfA ecBc|A2 cA eAfA|ecBc AFGE|A2 cA eAfA|eAfA ecBc|ABAF Ecdf|ecBc A2:|\|:A2 ce a2 af|efed cdBc|A2 ce a2 ag|
faba gbeg|agae faec|dBcA BAFG|ABAF Ecdf|ecBc A2:||
